public/library/seiscan-text-dark.svg

<svg width="723" height="150" viewBox="0 0 723 150" fill="none" xmlns="http://www.w3.org/2000/svg">
<path fill-rule="evenodd" clip-rule="evenodd" d="M74.7183 149.562C96.9718 149.562 116.965 139.924 130.717 124.611C124.319 119.075 114.679 118.739 107.869 124.211L106.568 125.256C94.098 135.275 75.9283 133.796 65.2592 121.893C59.4402 115.4 49.4747 114.738 42.8401 120.401L27.8392 133.207C40.6874 143.442 56.985 149.562 74.7183 149.562ZM99.0678 113.351C110.945 103.807 127.639 104.15 139.062 113.367C145.89 102.102 149.818 88.8983 149.818 74.7808C149.818 59.0944 144.968 44.5361 136.679 32.5117C131.335 31.3786 125.543 32.702 121.147 36.5817L119.895 37.6859C107.903 48.2675 89.6847 47.6244 78.4753 36.2241C72.3616 30.0064 62.3759 29.8022 56.011 35.7649L38.5544 52.118L28.9512 41.954L46.4079 25.6007C58.3307 14.4314 77.0368 14.8139 88.4892 26.4612C94.4732 32.5471 104.199 32.8903 110.601 27.2414L111.852 26.1373C115.738 22.7083 120.234 20.3968 124.941 19.1811C111.636 7.25683 94.0282 0 74.7183 0C36.5945 0 5.1057 28.2864 0.263739 64.9317C11.8434 59.3986 26.1269 61.5277 35.5685 71.1553C41.5289 77.2332 51.1264 77.8746 57.8492 72.6446L67.6097 65.0518C79.8758 55.5095 97.2161 55.9714 108.953 66.1535L127.955 82.6386L118.749 93.1604L99.7464 76.6751C93.0726 70.8856 83.2129 70.6227 76.2374 76.049L66.4773 83.6416C54.1256 93.2504 36.4925 92.0717 25.5417 80.905C19.1737 74.4118 8.75877 74.1851 2.11211 80.3955L0 82.3688C1.58066 97.988 7.9881 112.188 17.7145 123.469L33.7184 109.807C46.1464 99.1973 64.8147 100.439 75.7152 112.6C81.4108 118.955 91.11 119.744 97.7668 114.396L99.0678 113.351Z" fill="white"/>
<path d="M206.477 100.28H220.877C220.877 104.227 222.317 107.373 225.197 109.72C228.077 111.96 231.97 113.08 236.877 113.08C242.21 113.08 246.317 112.067 249.197 110.04C252.077 107.907 253.517 105.08 253.517 101.56C253.517 99 252.717 96.8667 251.117 95.16C249.623 93.4533 246.85 92.0667 242.797 91L229.037 87.8C222.103 86.0933 216.93 83.48 213.517 79.96C210.21 76.44 208.557 71.8 208.557 66.04C208.557 61.24 209.783 57.08 212.237 53.56C214.797 50.04 218.263 47.32 222.637 45.4C227.117 43.48 232.237 42.52 237.997 42.52C243.757 42.52 248.717 43.5333 252.877 45.56C257.143 47.5867 260.45 50.4133 262.797 54.04C265.25 57.6667 266.53 61.9867 266.637 67H252.237C252.13 62.9467 250.797 59.8 248.237 57.56C245.677 55.32 242.103 54.2 237.517 54.2C232.823 54.2 229.197 55.2133 226.637 57.24C224.077 59.2667 222.797 62.04 222.797 65.56C222.797 70.7867 226.637 74.36 234.317 76.28L248.077 79.64C254.69 81.1333 259.65 83.5867 262.957 87C266.263 90.3067 267.917 94.84 267.917 100.6C267.917 105.507 266.583 109.827 263.917 113.56C261.25 117.187 257.57 120.013 252.877 122.04C248.29 123.96 242.85 124.92 236.557 124.92C227.383 124.92 220.077 122.68 214.637 118.2C209.197 113.72 206.477 107.747 206.477 100.28Z" fill="white"/>
<path d="M318.355 124.92C310.782 124.92 304.062 123.213 298.195 119.8C292.329 116.28 287.742 111.48 284.435 105.4C281.129 99.2133 279.475 92.0667 279.475 83.96C279.475 75.7467 281.075 68.5467 284.275 62.36C287.582 56.1733 292.062 51.32 297.715 47.8C303.475 44.28 310.142 42.52 317.715 42.52C325.182 42.52 331.635 44.12 337.075 47.32C342.622 50.52 346.889 55 349.875 60.76C352.969 66.52 354.515 73.2933 354.515 81.08V86.68L287.475 86.84L287.795 76.76H339.475C339.475 70.2533 337.502 65.0267 333.555 61.08C329.609 57.1333 324.329 55.16 317.715 55.16C312.702 55.16 308.382 56.28 304.755 58.52C301.235 60.6533 298.515 63.8533 296.595 68.12C294.782 72.28 293.875 77.2933 293.875 83.16C293.875 92.5467 296.009 99.8 300.275 104.92C304.542 109.933 310.675 112.44 318.675 112.44C324.542 112.44 329.342 111.267 333.075 108.92C336.809 106.573 339.315 103.16 340.595 98.68H354.675C352.755 107 348.649 113.453 342.355 118.04C336.062 122.627 328.062 124.92 318.355 124.92Z" fill="white"/>
<path d="M371.314 123V44.76H386.354V123H371.314ZM378.674 26.2C376.007 26.2 373.661 25.24 371.634 23.32C369.714 21.2933 368.754 18.9467 368.754 16.28C368.754 13.5067 369.714 11.16 371.634 9.23999C373.661 7.31999 376.007 6.35999 378.674 6.35999C381.447 6.35999 383.794 7.31999 385.714 9.23999C387.634 11.16 388.594 13.5067 388.594 16.28C388.594 18.9467 387.634 21.2933 385.714 23.32C383.794 25.24 381.447 26.2 378.674 26.2Z" fill="white"/>
<path d="M401.789 100.28H416.189C416.189 104.227 417.629 107.373 420.509 109.72C423.389 111.96 427.282 113.08 432.189 113.08C437.522 113.08 441.629 112.067 444.509 110.04C447.389 107.907 448.829 105.08 448.829 101.56C448.829 99 448.029 96.8667 446.429 95.16C444.936 93.4533 442.162 92.0667 438.109 91L424.349 87.8C417.416 86.0933 412.242 83.48 408.829 79.96C405.522 76.44 403.869 71.8 403.869 66.04C403.869 61.24 405.096 57.08 407.549 53.56C410.109 50.04 413.576 47.32 417.949 45.4C422.429 43.48 427.549 42.52 433.309 42.52C439.069 42.52 444.029 43.5333 448.189 45.56C452.456 47.5867 455.762 50.4133 458.109 54.04C460.562 57.6667 461.842 61.9867 461.949 67H447.549C447.442 62.9467 446.109 59.8 443.549 57.56C440.989 55.32 437.416 54.2 432.829 54.2C428.136 54.2 424.509 55.2133 421.949 57.24C419.389 59.2667 418.109 62.04 418.109 65.56C418.109 70.7867 421.949 74.36 429.629 76.28L443.389 79.64C450.002 81.1333 454.962 83.5867 458.269 87C461.576 90.3067 463.229 94.84 463.229 100.6C463.229 105.507 461.896 109.827 459.229 113.56C456.562 117.187 452.882 120.013 448.189 122.04C443.602 123.96 438.162 124.92 431.869 124.92C422.696 124.92 415.389 122.68 409.949 118.2C404.509 113.72 401.789 107.747 401.789 100.28Z" fill="white"/>
<path d="M474.788 83.96C474.788 75.7467 476.388 68.5467 479.588 62.36C482.894 56.1733 487.428 51.32 493.188 47.8C498.948 44.28 505.614 42.52 513.188 42.52C523.001 42.52 531.161 45.1333 537.668 50.36C544.174 55.5867 548.068 62.52 549.348 71.16H534.308C533.028 66.1467 530.521 62.36 526.788 59.8C523.054 57.24 518.681 55.96 513.668 55.96C508.974 55.96 504.814 57.1333 501.188 59.48C497.561 61.72 494.734 64.92 492.708 69.08C490.681 73.24 489.668 78.1467 489.668 83.8C489.668 89.4533 490.628 94.36 492.548 98.52C494.468 102.573 497.188 105.773 500.708 108.12C504.228 110.36 508.334 111.48 513.028 111.48C518.361 111.48 522.948 110.147 526.788 107.48C530.628 104.813 533.188 101.187 534.468 96.6H549.508C548.548 102.253 546.361 107.213 542.948 111.48C539.641 115.64 535.374 118.947 530.148 121.4C525.028 123.747 519.321 124.92 513.028 124.92C505.348 124.92 498.628 123.213 492.868 119.8C487.214 116.387 482.788 111.64 479.588 105.56C476.388 99.3733 474.788 92.1733 474.788 83.96Z" fill="white"/>
<path d="M588.257 124.92C579.937 124.92 573.377 122.733 568.577 118.36C563.883 113.987 561.537 108.28 561.537 101.24C561.537 94.0933 564.097 88.3867 569.217 84.12C574.337 79.7467 581.483 77.1867 590.657 76.44L615.297 74.52V72.28C615.297 67.9067 614.497 64.44 612.897 61.88C611.297 59.2133 609.11 57.3467 606.337 56.28C603.563 55.1067 600.417 54.52 596.897 54.52C590.603 54.52 585.697 55.8533 582.177 58.52C578.763 61.08 577.057 64.76 577.057 69.56H563.937C563.937 64.12 565.323 59.3733 568.097 55.32C570.87 51.2667 574.763 48.12 579.777 45.88C584.897 43.64 590.817 42.52 597.537 42.52C604.043 42.52 609.697 43.6933 614.497 46.04C619.403 48.28 623.19 51.7467 625.857 56.44C628.63 61.0267 630.017 66.84 630.017 73.88V123H617.217L615.617 110.36C613.59 114.84 610.07 118.413 605.057 121.08C600.15 123.64 594.55 124.92 588.257 124.92ZM592.577 113.24C599.723 113.24 605.323 111.107 609.377 106.84C613.43 102.467 615.457 96.6 615.457 89.24V85.08L595.457 86.68C588.843 87.32 584.043 88.8667 581.057 91.32C578.177 93.7733 576.737 96.92 576.737 100.76C576.737 104.92 578.123 108.067 580.897 110.2C583.777 112.227 587.67 113.24 592.577 113.24Z" fill="white"/>
<path d="M665.885 123H650.845V44.76H664.445L666.045 56.76C668.499 52.28 672.019 48.8133 676.605 46.36C681.299 43.8 686.419 42.52 691.965 42.52C702.205 42.52 709.779 45.4533 714.685 51.32C719.592 57.1867 722.045 65.1333 722.045 75.16V123H707.005V78.52C707.005 70.6267 705.299 64.9733 701.885 61.56C698.472 58.04 693.885 56.28 688.125 56.28C681.085 56.28 675.592 58.5733 671.645 63.16C667.805 67.7467 665.885 73.88 665.885 81.56V123Z" fill="white"/>
</svg>

<svg xmlns="http://www.w3.org/2000/svg" width="723" height="150" fill="none" viewBox="0 0 723 150"><path fill="#fff" fill-rule="evenodd" d="M74.718 149.562c22.254 0 42.247-9.638 55.999-24.951-6.398-5.536-16.038-5.872-22.848-.4l-1.301 1.045c-12.47 10.019-30.64 8.54-41.309-3.363-5.819-6.493-15.784-7.155-22.419-1.492l-15 12.806c12.847 10.235 29.145 16.355 46.878 16.355m24.35-36.211c11.877-9.544 28.571-9.201 39.994.016 6.828-11.265 10.756-24.469 10.756-38.586 0-15.687-4.85-30.245-13.139-42.27-5.344-1.132-11.136.191-15.532 4.07l-1.252 1.105c-11.992 10.581-30.21 9.938-41.42-1.462-6.113-6.218-16.1-6.422-22.464-.46L38.554 52.119l-9.603-10.164 17.457-16.353c11.923-11.17 30.629-10.787 42.081.86 5.984 6.086 15.71 6.43 22.112.78l1.251-1.104a31.7 31.7 0 0 1 13.089-6.956C111.636 7.257 94.028 0 74.718 0 36.594 0 5.106 28.286.264 64.932c11.58-5.533 25.863-3.404 35.305 6.223 5.96 6.078 15.557 6.72 22.28 1.49l9.76-7.593c12.267-9.543 29.607-9.08 41.344 1.101l19.002 16.486-9.206 10.521-19.003-16.485c-6.673-5.79-16.533-6.052-23.509-.626l-9.76 7.593c-12.351 9.608-29.985 8.43-40.935-2.737-6.368-6.493-16.783-6.72-23.43-.51L0 82.37c1.58 15.619 7.988 29.819 17.715 41.1l16.003-13.662c12.428-10.61 31.097-9.368 41.997 2.793 5.696 6.355 15.395 7.144 22.052 1.796z" clip-rule="evenodd"/><path fill="#fff" d="M206.477 100.28h14.4q0 5.92 4.32 9.44 4.32 3.36 11.68 3.36 8 0 12.32-3.04 4.32-3.2 4.32-8.48 0-3.84-2.4-6.4-2.24-2.56-8.32-4.16l-13.76-3.2q-10.4-2.56-15.52-7.84-4.96-5.28-4.96-13.92 0-7.2 3.68-12.48 3.84-5.28 10.4-8.16 6.72-2.88 15.36-2.88t14.88 3.04q6.4 3.04 9.92 8.48 3.68 5.44 3.84 12.96h-14.4q-.16-6.08-4-9.44t-10.72-3.36q-7.04 0-10.88 3.04t-3.84 8.32q0 7.84 11.52 10.72l13.76 3.36q9.92 2.24 14.88 7.36 4.96 4.96 4.96 13.6 0 7.36-4 12.96-4 5.44-11.04 8.48-6.88 2.88-16.32 2.88-13.76 0-21.92-6.72t-8.16-17.92M318.355 124.92q-11.36 0-20.16-5.12-8.8-5.28-13.76-14.4-4.96-9.28-4.96-21.44 0-12.32 4.8-21.6 4.96-9.28 13.44-14.56 8.64-5.28 20-5.28 11.2 0 19.36 4.8 8.32 4.8 12.8 13.44 4.64 8.64 4.64 20.32v5.6l-67.04.16.32-10.08h51.68q0-9.76-5.92-15.68-5.919-5.92-15.84-5.92-7.52 0-12.96 3.36-5.28 3.2-8.16 9.6-2.72 6.24-2.72 15.04 0 14.08 6.4 21.76 6.4 7.52 18.4 7.52 8.8 0 14.4-3.52t7.52-10.24h14.08q-2.88 12.48-12.32 19.36t-24 6.88M371.314 123V44.76h15.04V123zm7.36-96.8q-4 0-7.04-2.88-2.88-3.04-2.88-7.04 0-4.16 2.88-7.04 3.04-2.88 7.04-2.88 4.16 0 7.04 2.88t2.88 7.04q0 4-2.88 7.04-2.88 2.88-7.04 2.88M401.789 100.28h14.4q0 5.92 4.32 9.44 4.32 3.36 11.68 3.36 8 0 12.32-3.04 4.32-3.2 4.32-8.48 0-3.84-2.4-6.4-2.24-2.56-8.32-4.16l-13.76-3.2q-10.4-2.56-15.52-7.84-4.96-5.28-4.96-13.92 0-7.2 3.68-12.48 3.84-5.28 10.4-8.16 6.72-2.88 15.36-2.88t14.88 3.04q6.4 3.04 9.92 8.48 3.68 5.44 3.84 12.96h-14.4q-.16-6.08-4-9.44t-10.72-3.36q-7.04 0-10.88 3.04t-3.84 8.32q0 7.84 11.52 10.72l13.76 3.36q9.92 2.24 14.88 7.36 4.96 4.96 4.96 13.6 0 7.36-4 12.96-4 5.44-11.04 8.48-6.88 2.88-16.32 2.88-13.76 0-21.92-6.72t-8.16-17.92M474.788 83.96q0-12.32 4.8-21.6 4.96-9.28 13.6-14.56t20-5.28q14.72 0 24.48 7.84t11.68 20.8h-15.04q-1.92-7.52-7.52-11.36t-13.12-3.84q-7.041 0-12.48 3.52-5.44 3.36-8.48 9.6t-3.04 14.72 2.88 14.72q2.88 6.08 8.16 9.6 5.28 3.36 12.32 3.36 8 0 13.76-4t7.68-10.88h15.04q-1.44 8.48-6.56 14.88-4.96 6.24-12.8 9.92-7.68 3.52-17.12 3.52-11.52 0-20.16-5.12-8.48-5.12-13.28-14.24-4.8-9.28-4.8-21.6M588.257 124.92q-12.48 0-19.68-6.56-7.04-6.56-7.04-17.12 0-10.72 7.68-17.12 7.68-6.56 21.44-7.68l24.64-1.92v-2.24q0-6.56-2.4-10.4-2.4-4-6.56-5.6-4.16-1.76-9.44-1.76-9.44 0-14.72 4-5.12 3.84-5.12 11.04h-13.12q0-8.16 4.16-14.24t11.68-9.44q7.68-3.36 17.76-3.36 9.76 0 16.96 3.52 7.36 3.36 11.36 10.4 4.16 6.88 4.16 17.44V123h-12.8l-1.6-12.64q-3.04 6.72-10.56 10.72-7.36 3.84-16.8 3.84m4.32-11.68q10.719 0 16.8-6.4 6.08-6.56 6.08-17.6v-4.16l-20 1.6q-9.921.96-14.4 4.64-4.32 3.68-4.32 9.44 0 6.24 4.16 9.44 4.32 3.04 11.68 3.04M665.885 123h-15.04V44.76h13.6l1.6 12q3.681-6.72 10.56-10.4 7.041-3.84 15.36-3.84 15.36 0 22.72 8.8t7.36 23.84V123h-15.04V78.52q0-11.84-5.12-16.96-5.12-5.28-13.76-5.28-10.56 0-16.48 6.88-5.76 6.88-5.76 18.4z"/></svg>
